X: 124001
Q: "Reel."
M: C
L: 1/8
K: D
uA2 |\
d2de f2ed | cBcd e2A2 |\
d2de (fg)fe | d2a2 a2A2 |\
d2de (gf)ed | cBcd e2A2 |\
|: A2 |\
d2a2 f2a2 | cBcd e2A2 |\
d2a2 fgef | d2a2 a2A2 |\
d2a2 bagf | gfed cdeA |\


